X:141
T:Waltzes simple chords 13
M:3/4
L:1/8
K:G
D2 [B2G,2B,2D2]>^A2 | B2 [A2B,2^D2F2A2] B2 | A2 [G2E,2G,2B,2]>F2 | G2 [G2C,2^D,2G,2] D2 | C2 [B,4G,4B,4D4] |
B2 [B2G,2B,2D2] A2 | G2 [A2A,2C2E2] c2 | e2 [d2D,2F,2A,2C2] ^c2 | c2 [B2G,2B,2D2]>^A2 |
B2 [A2B,2^D2F2A2] B2 | A2 [G2E,2G,2B,2]>F2 | G2 [G2C,2^D,2G,2] D2 | C2 [B,2G,2B,2D2]>D2 |
B2 [B4D,4F,4A,4C4] | A4< [G4G,4B,4D4] | [G2G,2B,2D2=F2] A2 | B2 [c2C,2E,2G,2]>B2 |
c2 [e2C,2E,2G,2] d2 | c2 [B2G,2B,2D2]>^A2 | B2 [d2G,2B,2D2] c2 | B2 [A2A,2^C2E2]>B2 |
^c2 [A2A,2C2E2G2] B2 | ^c4< [d4D,4F,4A,4] | [d4D,4F,4A,4C4] | D2 [B2G,2B,2D2]>^A2 |
B2 [A2B,2^D2F2A2] B2 | A2 [G2E,2G,2B,2]>F2 | G2 [G2C,2^D,2G,2] D2 | C2 [B,2G,2B,2D2]>D2 |
B2 [B4D,4F,4A,4C4] | A4< [G4G,4B,4D4] | [G4G,4B,4D4] | D2 [G4G,4B,4D4] |
G2 [F4G,4B,4D4] | F2 [E4G,4B,4D4] | G2 [c2G,2B,2D2] G2 | A2 [G4G,4B,4D4] |
B2 [d2G,2B,2D2] c2 | B2 [A4G,4B,4D4] | E2 [D2G,2B,2D2] E2 | F2 [B2G,2B,2D2]>^A2 |
B2 [A2B,2^D2F2A2] B2 | A2 [G2E,2G,2B,2]>F2 | G2 [G2C,2^D,2G,2] D2 | C2 [G2C,2^D,2G,2] B2 |
d2 [d2C,2^D,2G,2] e2 | f2 [g2C,2^D,2G,2] =f2 | d2 [B2C,2^D,2G,2] c2 | d2 [e4C,4^D,4G,4] |
e2 [c2C,2^D,2G,2] =d2 | e2 [d4C,4^D,4G,4] | d2 [B2C,2^D,2G,2] c2 | d2 [^c2=C,2^D,2G,2] e2 |
g2 [a2C,2^D,2G,2] g2 | e2 [d2C,2^D,2G,2] c2 | A2 [F2C,2^D,2G,2] A2 | c2 [d4C,4^D,4G,4] |
G2 [F4C,4^D,4G,4] | F2 [E4C,4^D,4G,4] | G2 [c2C,2^D,2G,2] G2 | A2 [G4C,4^D,4G,4] |
B2 [d2C,2^D,2G,2] c2 | A2 [B2C,2^D,2G,2] =d2 | e2 [G4C,4^D,4G,4] |


